X:38
T:Celebrated Set Of Quadrilles No.3. Le4.038
B:L.Leadley MS#4 c1850
Z:Village Music Project, 2016 Steve Mansfield
M:6/8
L:1/8
Q:3/8=90
C:T Baines
N:* all g2 in Mss
K:G
"^key D in ms"d | d2B g2d | b3 bag | fed dcB | d2c A2B |
c2A c2A | a3 agf | fdd def | "*" g3- g2 ||
d | bag fed | cBA GFE | DGB EGe | DFd d^cd |
bag fed | cBA BAG | ddd def | "*" g3- g2 !segno! ||
d | bab gfg | d^cd B3 | BFG DCD | B,A,B, G,3 |
cBc AGA | FEF D2z | ddd def | "*" g3- g2!fine! ||

